X: 12
T:The Donegall
% Nottingham Music Database
S:via PR
M:4/4
L:1/4
K:D
(3A,/2B,/2C/2|"D"D(D/2E/2) F/2D/2F/2A/2|d/2F/2A/2F/2 B/2F/2A/2F/2|\
"Em"E(E/2F/2) G/2F/2G/2A/2|"D"B/2d/2A/2F/2 "A7"E/2G/2F/2E/2|
"D"D(D/2E/2) F/2D/2F/2A/2|"D"d/2F/2B/2F/2 "A7"A/2B/2d/2e/2|\
(3"D"f/2g/2f/2(3e/2f/2e/2 "G"d/2B/2A/2G/2|(3"A7"F/2G/2F/2(3E/2F/2E/2 "D"D::
A|"D"d/2e/2f/2g/2 a/2f/2d/2f/2|a/2f/2d/2f/2 a(g/2f/2)|\
"Em"e/2d/2e/2f/2 g/2f/2e/2d/2|"Em"e/2d/2e/2f/2 "A7"g(f/2e/2)|
"D"d/2e/2f/2g/2 a/2f/2d/2f/2|a/2f/2d/2f/2 a/2b/2a/2g/2|\
(3"D"f/2g/2f/2(3e/2f/2e/2 "G"d/2B/2A/2G/2|(3"A7"F/2G/2F/2(3E/2F/2E/2 "D"D:|<end>
<start>
